!!!!SEGMENT: s-uu--vok-mus-i-hs-54-12_forster-kaspar--o-dulcis-jesu.krn
!!!cenid: 16xx:1698
!!!COM: Förster, Kaspar
!!!COM-rismID: pe30006147
!!!CDT: ~1616-1673/02/02
!!!CNT: German
!!!OTL: O dulcis Jesu
!!!PDT:
!!!AGN:
!!!YEC: Copyright 2022 Narodowy Instytut Fryderyka Chopina (https://polishscores.org)
!!!YEM: License CC-BY-4.0 (https://creativecommons.org/licenses/by/4.0)
!!!SMS-siglum: S-Uu
!!!SMS-shelfmark: Vok. mus. i hs. 54:12
!!!SMS-variant:
!!!SMS-altvar:
!!!SMS-shelfwork: W
!!!NIFC-rismSourceID: 190008728
!!!NIFC-rismChildID: 190008728
!!!NIFC-islandoraID: none
!!!URL-pdf-islandora:
!!!URL-scan: https://www2.musik.uu.se/duben/presentationSource1.php?Select_Dnr=844 @EN{Scan on Academica} @PL{Skany w zewnętrznej bibliotece cyfrowej}
!!!IIIF:
!!!ONB-nifc: UWAGA: poszczególne partie dostępne po kliknięciu w „browse part”. Informacje nt stron tytułowych w opisie na stronie lub na RISM.
!!!AIN: 1 organ 2 soprn
!!!key: e
**kern	**fba	**kern	**text	**mod-text	**kern	**text	**mod-text
*	*	*group1	*	*	*group1	*	*
*part3	*	*part2	*	*	*part1	*	*
*staff3	*	*staff2	*	*	*staff1	*	*
*I"Basſo Continuo.	*	*I"[S II]	*	*	*I"[S I]	*	*
*mI"Basso continuo	*	*mI"Soprano II	*	*	*mI"Soprano I	*	*
*I'bc	*	*I'S 2	*	*	*I'S 1	*	*
*ICklav	*	*ICvox	*	*	*ICvox	*	*
*Iorgan	*	*Isoprn	*	*	*Isoprn	*	*
*IGcont	*	*IGconc	*	*	*IGconc	*	*
*clefF4	*	*clefC1	*	*	*clefC1	*	*
*mclefF4	*	*mclefG2	*	*	*mclefG2	*	*
*k[]	*	*k[]	*	*	*k[]	*	*
*mk[f#]	*	*mk[f#]	*	*	*mk[f#]	*	*
*e:	*	*e:	*	*	*e:	*	*
*M4/4	*	*M4/4	*	*	*M4/4	*	*
*met(C)	*	*met(C)	*	*	*met(C)	*	*
=1-	=1-	=1-	=1-	=1-	=1-	=1-	=1-
!LO:TX:t=P:problem:nazwa głosu na okładce	!	!	!	!	!	!	!
!LO:TX:b:i:t=O dulcis Jeſu.:mod=	!	!LO:TX:t=P:problem:nazwa głosu dopisana ołówkiem	!	!	!LO:TX:t=P:problem:nazwa głosu dopisana ołówkiem	!	!
[1E	-	2r	.	.	0r	.	.
*	*	*2\right	*	*	*	*	*
.	.	2b\	Ô	O	.	.	.
=2-	=2-	=2-	=2-	=2-	=2-	=2-	=2-
1E_	.	2g/	dul-	dul-	.	.	.
.	.	2e/	-cis	-cis	.	.	.
=3-	=3-	=3-	=3-	=3-	=3-	=3-	=3-
1E]	.	1g	Je-	Je-	2rcc	.	.
*	*	*	*	*	*2\right	*	*
.	.	.	.	.	2ee\	Ô	O
=4-	=4-	=4-	=4-	=4-	=4-	=4-	=4-
!LO:TX:t=P:problem:kreska pseudotaktowa	!	!	!	!	!	!	!
1B	5#:6	2f#X/	-ſu	-ſu,	2dd\	dul-	dul-
.	.	1g\	Je-	Je-	2b\	-cis	-cis
=5-	=5-	=5-	=5-	=5-	=5-	=5-	=5-
*2\right	*	*	*	*	*	*	*
2A\	3 7	.	.	.	1cc	Je-	Je-
!	!LO:MO:mod=7 #3	!	!	!	!	!	!
2D\	7 3#r	(>2f#X/	-ſu	-ſu	.	.	.
=6-	=6-	=6-	=6-	=6-	=6-	=6-	=6-
!LO:TX:t=P:problem:kreska pseudotaktowa	!	!	!	!	!	!	!
1G	.	2g/)	.	.	2b\	-ſu	-ſu,
!	!	!	!	!	!LO:TX:t=P:problem:kreska pseudotaktowa	!	!
.	.	4.g/	ad	ad	2rcc	.	.
.	.	8b\	Te	te	.	.	.
=7-	=7-	=7-	=7-	=7-	=7-	=7-	=7-
1G#X	6	4.e/	ve-	ve-	2rcc	.	.
.	.	8e/	-ni-	-ni-	.	.	.
.	.	2e/	-o	-o,	4.b\	ad	ad
.	.	.	.	.	8ee\	te	te
=8-	=8-	=8-	=8-	=8-	=8-	=8-	=8-
1C#X	.	2rf	.	.	4.a\	ve-	ve-
.	.	.	.	.	8a\	-ni-	-ni-
!	!	!	!	!	!LO:TX:t=P:problem:kreska pseudotaktowa	!	!
.	.	4.e/	ad	ad	2a\	-o	-o,
.	.	8a\	Te	te	.	.	.
=9-	=9-	=9-	=9-	=9-	=9-	=9-	=9-
!LO:TX:t=P:problem:kreska pseudotaktowa	!	!	!	!	!	!	!
1D	#	4.f#X/	ve-	ve-	2r	.	.
.	.	8f#/	-ni-	-ni-	.	.	.
*	*	*	*	*	*	*ij	*
.	.	2f#/	-o	-o,	4.a\	ad	ad
.	.	.	.	.	8dd\	te	te
=10-	=10-	=10-	=10-	=10-	=10-	=10-	=10-
2D\	4# 2	2rcc	.	.	4.g#X/	ve-	ve-
.	.	.	.	.	8g#/	-ni-	-ni-
2C#X/	6	4.cc#X\	ad	ad	4a\	-o	-o,
*	*	*	*	*	*	*Xij	*
.	.	.	.	.	2a\	ve-	ve-
.	.	8ee\	Te	te	.	.	.
*	*	*custos:a	*	*	*	*	*
!	!	!LO:LB:g=original	!	!	!	!	!
=11-	=11-	=11-	=11-	=11-	=11-	=11-	=11-
1E	5 4:3	2.b\	ve-	ve-	.	.	.
.	.	.	.	.	8g#X/L	.	.
.	.	.	.	.	8f#X/J	.	.
.	.	.	.	.	4.g#/	.	.
.	.	4b\	-ni-	-ni-	.	.	.
.	.	.	.	.	8g#/	-ni-	-ni-
*	*	*	*	*	*custos:a	*	*
!	!	!	!	!	!LO:LB:g=original	!	!
=12-	=12-	=12-	=12-	=12-	=12-	=12-	=12-
!LO:TX:t=P:problem:kreska pseudotaktowa	!	!	!	!	!	!	!
1AA	#	2cc#X\	-o	-o.	2a\	-o	-o.
!	!	!LO:TX:t=P:problem:kreska pseudotaktowa	!	!	!	!	!
.	.	2rb	.	.	4r	.	.
.	.	.	.	.	4a\	O	O
=13-	=13-	=13-	=13-	=13-	=13-	=13-	=13-
2BB/	6	2rb	.	.	2gny/	dul-	dul-
2C#X/	6	4rcc	.	.	2e/	-cis	-cis,
.	.	4ee\	O	O	.	.	.
=14-	=14-	=14-	=14-	=14-	=14-	=14-	=14-
2D\	#	2dd\	dul-	dul-	2f#X/	dul-	dul-
2E\	#	2b\	-cis	-cis	2g#X/	-cis	-cis
=15-	=15-	=15-	=15-	=15-	=15-	=15-	=15-
2AA/	-	1ccny	Je-	Je-	2a\	Je-	Je-
!LO:TX:t=P:problem:kreska pseudotaktowa	!LO:MO:mod=7 #3	!	!	!	!	!	!
2D\	7 3#r	.	.	.	4f#X/	-ſu	-ſu,
.	.	.	.	.	4f#/	ad	ad
=16-	=16-	=16-	=16-	=16-	=16-	=16-	=16-
1GG	.	2b\	-ſu	-ſu,	2gny/	te	te
.	.	2rb	.	.	4.g/	ad	ad
.	.	.	.	.	8b\	te	te
*custos:C	*	*	*	*	*	*	*
!LO:LB:g=original	!	!	!	!	!	!	!
=17-	=17-	=17-	=17-	=17-	=17-	=17-	=17-
2Cny/	.	2rb	.	.	[1e	ve-	ve-
[2AA/	-	4.cc\	ad	ad	.	.	.
.	.	8ee\	Te	te	.	.	.
=18-	=18-	=18-	=18-	=18-	=18-	=18-	=18-
2AA]	6 5	2.f#X/	ve-	ve-	2e]	.	.
!LO:TX:t=P:problem:kreska pseudotaktowa	!	!	!	!	!	!	!
2BB/	#	.	.	.	2d#X/	-ni-	-ni-
.	.	4f#/	-ni-	-ni-	.	.	.
=19-	=19-	=19-	=19-	=19-	=19-	=19-	=19-
1EE	-	2g/	-o	-o,	2e/	-o	-o,
!	!	!	!	!	!LO:TX:t=P:problem:kreska pseudotaktowa	!	!
.	.	4.g/	ad	ad	2rf	.	.
.	.	8b\	Te	te	.	.	.
=20-	=20-	=20-	=20-	=20-	=20-	=20-	=20-
2C/	.	[<1e	ve-	ve-	2rcc	.	.
[2AA/	-	.	.	.	4.cc\	ad	ad
.	.	.	.	.	8ee\	Te	Te
=21-	=21-	=21-	=21-	=21-	=21-	=21-	=21-
2AA]	6 5	2e/]	.	.	2.f#X/	ve-	ve-
2BB/	#	2d#X/	-ni-	-ni-	.	.	.
.	.	.	.	.	4f#/	-ni-	-ni-
=22-	=22-	=22-	=22-	=22-	=22-	=22-	=22-
1E	#	1e	-o	-o.	1g#X	-o	-o.
*	*	*	*	*	*custos:ee	*	*
!	!	!LO:LB:g=original	!	!	!LO:LB:g=original	!	!
=23||	=23||	=23||	=23||	=23||	=23||	=23||	=23||
*M3/2	*	*M3/2	*	*	*M3/2	*	*
2E\	.	0.r	.	.	2ee\	Oc-	Oc-
1F#X	6	.	.	.	(4dd\	-cur-	-cur-
.	.	.	.	.	4cc\)	.	.
.	.	.	.	.	(4b\	-re	-re,
.	.	.	.	.	4a\)	.	.
=24-	=24-	=24-	=24-	=24-	=24-	=24-	=24-
1.Gny	.	.	.	.	2.b\	Do-	Do-
.	.	.	.	.	4a\	-mi-	-mi-
.	.	.	.	.	2gny/	-ne	-ne,
=25-	=25-	=25-	=25-	=25-	=25-	=25-	=25-
2GG/	.	2b\	Oc-	Oc-	2dd\	oc-	oc-
!LO:TX:t=P:problem:kreska pseudotaktowa	!	!	!	!	!	!	!
1AA	.	(4a\	-cur-	-cur-	(4cc\	-cur-	-cur-
.	.	4g/)	.	.	4b\)	.	.
.	.	(4f#X/	-re	-re,	(4a\	-re	-re,
.	.	4e/)	.	.	4g\)	.	.
=26-	=26-	=26-	=26-	=26-	=26-	=26-	=26-
1.BB	#	2.d#X/	Do-	Do-	2.f#X/	Do-	Do-
.	.	4d#/	-mi-	-mi-	4f#/	-mi-	-mi-
.	.	2d#/	-ne	-ne,	2f#/	-ne	-ne,
=27-	=27-	=27-	=27-	=27-	=27-	=27-	=27-
2GG/	.	2g/	oc-	oc-	2b\	oc-	oc-
2C\	6 5	2.g/	-cur-	-cur-	1a	-cur-	-cur-
2D\	#	.	.	.	.	.	.
.	.	(4f#X/	-re	-re,	.	.	.
=28-	=28-	=28-	=28-	=28-	=28-	=28-	=28-
2G\	.	2.g/)	.	.	2.b\	-re	-re,
!LO:TX:t=P:problem:kreska pseudotaktowa	!	!	!	!	!	!	!
1GG	.	.	.	.	.	.	.
.	.	(4f#X/	oc-	oc-	(4a\	oc-	oc-
.	.	4g/	.	.	4b\	.	.
.	.	4a/)	.	.	4cc#X\	.	.
=29-	=29-	=29-	=29-	=29-	=29-	=29-	=29-
2D\	#	(4f#X/	-cur-	-cur-	2dd\)	.	.
.	.	4g/)	.	.	.	.	.
2G\	.	1e	.	.	2.dd\	-cur-	-cur-
2A\	.	.	.	.	.	.	.
.	.	.	.	.	(4cc#X\	-re	-re,
*custos:D	*	*	*	*	*	*	*
!LO:LB:g=original	!	!	!	!	!	!	!
=30-	=30-	=30-	=30-	=30-	=30-	=30-	=30-
1.D	#	1f#X	-re	-re,	1dd)	.	.
.	.	2dny/	et	et	2rdd	.	.
*	*	*	*	*	*custos:g	*	*
!	!	!	!	!	!LO:LB:g=original	!	!
=31-	=31-	=31-	=31-	=31-	=31-	=31-	=31-
*col	*	*	*	*	*	*	*
2D/	4 2	2.e/	oſ-	oſ-	1.r	.	.
1C#X	6	.	.	.	.	.	.
.	.	4f#X/	-cu-	-cu-	.	.	.
.	.	2g/	-la	-la	.	.	.
*Xcol	*	*custos:f#	*	*	*	*	*
!	!	!LO:LB:g=original	!	!	!	!	!
=32-	=32-	=32-	=32-	=32-	=32-	=32-	=32-
2.D/	#	1f#X	ſanc-	ſanc-	2r	.	.
.	.	.	.	.	2r	.	.
4Cny/	.	.	.	.	.	.	.
2BB/	6	[2g/	-ta	-ta	2g/	et	et
=33-	=33-	=33-	=33-	=33-	=33-	=33-	=33-
1C	6 5	2g/]	.	.	2.a\	oſ-	oſ-
.	.	2.g/	tu-	tu-	.	.	.
.	.	.	.	.	4b\	-cu-	-cu-
2D\	7 3#	.	.	.	2ccny\	-la	-la
.	.	(<4f#X/	-a	-a	.	.	.
=34-	=34-	=34-	=34-	=34-	=34-	=34-	=34-
1G	.	1g)	.	.	(2b\	ſan-	ſan-
.	.	.	.	.	2cc#X\)	.	.
!LO:TX:t=P:problem:kreska pseudotaktowa	!	!LO:TX:t=P:problem:kreska pseudotaktowa	!	!	!	!	!
2F#X\	6	2r	.	.	[2dd\	-cta	-cta
=35-	=35-	=35-	=35-	=35-	=35-	=35-	=35-
1.E	7:6	2r	.	.	2dd\]	.	.
.	.	2.g/	ſen-	ſen-	2.dd\	tu-	tu-
.	.	4g/	-ti-	-ti-	(4cc#X\	-a	-a
=36-	=36-	=36-	=36-	=36-	=36-	=36-	=36-
1.D	5:6	1f#X	-ant	-ant,	2dd\)	.	.
.	.	.	.	.	2.b\	sen-	sen-
!	!	!LO:TX:t=P:problem:kreska pseudotaktowa	!	!	!	!	!
.	.	2rf	.	.	.	.	.
.	.	.	.	.	4b\	-ti-	-ti-
=37-	=37-	=37-	=37-	=37-	=37-	=37-	=37-
!LO:TX:t=P:problem:kreska pseudotaktowa	!	!	!	!	!	!	!
1.C	6	2rf	.	.	2a\	-ant	-ant,
.	.	2.e/	ſen-	ſen-	2.a\	ſen-	ſen-
.	.	4e/	-ti-	-ti-	4a\	-ti-	-ti-
=38-	=38-	=38-	=38-	=38-	=38-	=38-	=38-
1.BB	# 6	2d/	-ant	-ant	2g#X/	-ant	-ant
.	.	2dd\	la-	la-	2g#/	la-	la-
.	.	4ee\	-bi-	-bi-	4g#/	-bi-	-bi-
!	!	!LO:TX:t=P:problem:kreska pseudotaktowa	!	!	!	!	!
.	.	4dd\	-a	-a	4g#/	-a	-a
=39-	=39-	=39-	=39-	=39-	=39-	=39-	=39-
2AA/	-	2cc\	me-	me-	2a\	me-	me-
1BB	# 6	2b\	-a	-a,	2g#X\	-a	-a,
!	!	!LO:TX:t=P:problem:kreska pseudotaktowa	!	!	!	!	!
.	.	2rb	.	.	2r	.	.
*	*	*	*	*	*custos:a	*	*
!	!	!	!	!	!LO:LB:g=original	!	!
=40-	=40-	=40-	=40-	=40-	=40-	=40-	=40-
1.AA	-	2cc\	la-	la-	2a\	la-	la-
.	.	2a\	-bia	-bia	2f#X/	-bi-	-bi-
.	.	2g/	.	.	2e/	-a	-a
*	*	*custos:f#	*	*	*	*	*
!	!	!LO:LB:g=original	!	!	!	!	!
=41-	=41-	=41-	=41-	=41-	=41-	=41-	=41-
1.BB	4:3	1.f#X	me-	me-	1e	me-	me-
.	.	.	.	.	(2d#X/	-a	-a,
=42-	=42-	=42-	=42-	=42-	=42-	=42-	=42-
[<1.E	.	1g	-a	-a,	1e)	.	.
.	.	2e/	et	et	2rf	.	.
=43-	=43-	=43-	=43-	=43-	=43-	=43-	=43-
2E/]	4 2	2.f#X/	oſ-	oſ-	1.r	.	.
1D#X	6	.	.	.	.	.	.
.	.	4g#X/	-cu-	-cu-	.	.	.
.	.	2a\	-la	-la	.	.	.
=44-	=44-	=44-	=44-	=44-	=44-	=44-	=44-
2.E\	#	1g#X	ſanc-	ſanc-	2r	.	.
.	.	.	.	.	2r	.	.
4Dny/	.	.	.	.	.	.	.
2C/	6	[2a\	-ta	-ta	2a\	et	et
*custos:D	*	*	*	*	*	*	*
!LO:LB:g=original	!	!	!	!	!	!	!
=45-	=45-	=45-	=45-	=45-	=45-	=45-	=45-
1D	6 5	2a\]	.	.	2.b\	oſ-	oſ-
.	.	2.a\	tu-	tu-	.	.	.
.	.	.	.	.	4ccny\	-cu-	-cu-
!LO:TX:t=P:problem:kreska pseudotaktowa	!	!	!	!	!	!	!
2E\	7 3#	.	.	.	2dd\	-la	-la
.	.	(<4g#X/	-a	-a	.	.	.
=46-	=46-	=46-	=46-	=46-	=46-	=46-	=46-
1A	.	1a)	.	.	(2cc\	ſan-	ſan-
.	.	.	.	.	2dd\)	.	.
!	!	!LO:TX:t=P:problem:kreska pseudotaktowa	!	!	!	!	!
2G\	.	2r	.	.	[2ee\	-cta	-cta
=47-	=47-	=47-	=47-	=47-	=47-	=47-	=47-
1.Fny	7:6	2r	.	.	2ee\]	.	.
.	.	2.a\	ſen-	ſen-	2.ee\	tu-	tu-
.	.	4a\	-ti-	-ti-	(4dd\	-a	-a
=48-	=48-	=48-	=48-	=48-	=48-	=48-	=48-
2E\	#	2g#X/	-ant	-ant	2ee\)	.	.
!LO:TX:t=P:problem:kreska pseudotaktowa	!	!	!	!	!	!	!
1EE	4:3	2g#/	la-	la-	2.ee\	ſen-	ſen-
.	.	4f#X/	-bia	-bia	.	.	.
.	.	4g#X/	.	.	4ee\	-ti-	-ti-
=49-	=49-	=49-	=49-	=49-	=49-	=49-	=49-
2AA/	-	(2.a\	me-	me-	2cc\	-ant	-ant
!	!LO:MO:mod=7 #3	!	!	!	!	!	!
1D	7 3#r	.	.	.	2cc\	la-	la-
.	.	4gny/	.	.	.	.	.
.	.	2f#X/)	.	.	4dd\	-bia	-bia
.	.	.	.	.	4cc\	.	.
*	*	*custos:g	*	*	*custos:b	*	*
!	!	!LO:LB:g=original	!	!	!LO:LB:g=original	!	!
=50-	=50-	=50-	=50-	=50-	=50-	=50-	=50-
2.GG/	.	1.g	-a	-a,	2.b\	me-	me-
4AA/	.	.	.	.	(4cc\	-a	-a,
2BB/	6	.	.	.	2dd\)	.	.
=51-	=51-	=51-	=51-	=51-	=51-	=51-	=51-
2.C/	6	2.e/	la-	la-	2.a\	la-	la-
4D/	.	4f#X/	-bia	-bia	4a\	-bia	-bia
*	*	*	*	*	*col	*	*
2E\	# 6	[2g/	.	.	1a\	me-	me-
=52-	=52-	=52-	=52-	=52-	=52-	=52-	=52-
2D\	4:3	2g/]	.	.	.	.	.
1DD	.	2.g/	me-	me-	1a	-a	-a,
.	.	(<4f#X/	-a	-a,	.	.	.
*	*	*	*	*	*Xcol	*	*
=53-	=53-	=53-	=53-	=53-	=53-	=53-	=53-
2GG/	.	1g)	.	.	2b\	.	.
!LO:TX:t=P:problem:kreska pseudotaktowa	!	!	!	!	!	!	!
1G	.	.	.	.	2.b\	ſen-	ſen-
!	!	!LO:TX:t=P:problem:kreska pseudotaktowa	!	!	!	!	!
.	.	2r	.	.	.	.	.
.	.	.	.	.	4b\	-ti-	-ti-
=54-	=54-	=54-	=54-	=54-	=54-	=54-	=54-
1.F#X	6	2rb	.	.	1a	-ant	-ant,
.	.	2.dd\	ſen-	ſen-	.	.	.
!	!	!	!	!	!LO:TX:t=P:problem:kreska pseudotaktowa	!	!
.	.	.	.	.	2r	.	.
.	.	4dd\	-ti-	-ti-	.	.	.
=55-	=55-	=55-	=55-	=55-	=55-	=55-	=55-
1.E	# 6	1cc#X	-ant	-ant	2r	.	.
.	.	.	.	.	2.gny/	ſen-	ſen-
!	!	!LO:TX:t=P:problem:kreska pseudotaktowa	!	!	!	!	!
.	.	2rb	.	.	.	.	.
!	!	!	!	!	!LO:TX:t=P:problem:kreska pseudotaktowa	!	!
.	.	.	.	.	4g/	-ti-	-ti-
=56-	=56-	=56-	=56-	=56-	=56-	=56-	=56-
!LO:TX:t=P:problem:kreska pseudotaktowa	!	!	!	!	!	!	!
1.D	6 #	2rb	.	.	1f#X	-ant	-ant
.	.	(>1b	la-	la-	.	.	.
.	.	.	.	.	(4g/	la-	la-
.	.	.	.	.	4f#/)	.	.
=57-	=57-	=57-	=57-	=57-	=57-	=57-	=57-
1.C	7:6	2b\)	.	.	1e	.	.
.	.	2.a\	-bia	-bia	.	.	.
.	.	.	.	.	4f#X/	-bi-	-bi-
.	.	4a\	.	.	4e/	-a	-a
=58-	=58-	=58-	=58-	=58-	=58-	=58-	=58-
1.BB	5 3#	1b	me-	me-	2.d#X/	me-	me-
.	.	.	.	.	4e/	-a	-a,
.	.	2b\	-a	-a,	(4f#X/	.	.
.	.	.	.	.	4g/)	.	.
*custos:AA	*	*	*	*	*custos:a	*	*
!LO:LB:g=original	!	!	!	!	!LO:LB:g=original	!	!
=59-	=59-	=59-	=59-	=59-	=59-	=59-	=59-
!LO:TX:t=P:problem:kreska pseudotaktowa	!	!	!	!	!	!	!
1.AA	-	2ccny\	la-	la-	2a\	la-	la-
.	.	2a\	-bia	-bia	2f#X/	-bia	-bi-
.	.	2g/	.	.	2e/	.	-a
=60-	=60-	=60-	=60-	=60-	=60-	=60-	=60-
1.BB	4:3	1.f#X	me-	me-	1e	me-	me-
.	.	.	.	.	(2d#X/	-a	-a,
*	*	*custos:g	*	*	*	*	*
!	!	!LO:LB:g=original	!	!	!	!	!
=61-	=61-	=61-	=61-	=61-	=61-	=61-	=61-
1.E	-	1g	-a	-a,	2e/)	.	.
.	.	.	.	.	2.ee\	ſen-	ſen-
!	!	!LO:TX:t=P:problem:kreska pseudotaktowa	!	!	!	!	!
.	.	2r	.	.	.	.	.
.	.	.	.	.	4ee\	-ti-	-ti-
=62-	=62-	=62-	=62-	=62-	=62-	=62-	=62-
1.AA	-	2r	.	.	1cc	-ant	-ant,
.	.	2.a\	ſen-	ſen-	.	.	.
.	.	.	.	.	2rb	.	.
.	.	4a\	-ti-	-ti-	.	.	.
=63-	=63-	=63-	=63-	=63-	=63-	=63-	=63-
1.BB	# 6	1.g#X	-ant	-ant	2rdd	.	.
.	.	.	.	.	2.dd\	ſen-	ſen-
.	.	.	.	.	4dd\	-ti-	-ti-
=64-	=64-	=64-	=64-	=64-	=64-	=64-	=64-
2AA/	.	2rb	.	.	2cc\	-ant	-ant
1A	5:6	2cc\	la-	la-	[1ff	la-	la-
.	.	4dd\	-bia	-bia	.	.	.
!	!	!LO:TX:t=P:problem:kreska pseudotaktowa	!	!	!	!	!
.	.	4cc\	.	.	.	.	.
=65-	=65-	=65-	=65-	=65-	=65-	=65-	=65-
1.G	7:6	1b	me-	me-	2ff]	.	.
.	.	.	.	.	2.ee\	-bia	-bi-
.	.	4cc\	.	.	.	.	.
!	!	!LO:TX:t=P:problem:kreska pseudotaktowa	!	!	!	!	!
.	.	4b\	.	.	4ee\	me-	-a
=66-	=66-	=66-	=66-	=66-	=66-	=66-	=66-
1.F	7 3#	1a	.	.	2ee\	-a	me-
.	.	.	.	.	2dd\	.	-a,
.	.	4b\	.	.	[2dd\	la-	la-
.	.	4a\	.	.	.	.	.
=67-	=67-	=67-	=67-	=67-	=67-	=67-	=67-
2E\	.	2g#X/	.	.	2dd\]	.	.
1F	6 5	[1a	.	.	2.cc\	-bia	-bi-
.	.	.	.	.	4cc\	.	-a
*	*	*	*	*	*custos:b	*	*
!	!	!	!	!	!LO:LB:g=original	!	!
=68-	=68-	=68-	=68-	=68-	=68-	=68-	=68-
2D\	4:3	1a]	.	.	1.b	me-	me-
1E	.	.	.	.	.	.	.
.	.	(<2g#X/	-a	-a.	.	.	.
=69-	=69-	=69-	=69-	=69-	=69-	=69-	=69-
1.AA	.	1.a)	.	.	1.cc#X	-a	-a.
=70||	=70||	=70||	=70||	=70||	=70||	=70||	=70||
*M4/4	*	*M4/4	*	*	*M4/4	*	*
*met(C)	*	*met(C)	*	*	*met(C)	*	*
2AA/	#	1r	.	.	4ra	.	.
.	.	.	.	.	8cc#X\	Ad	Ad
.	.	.	.	.	8ee\	te	te
[2BB/	.	.	.	.	4g#X/	ſo-	ſo-
.	.	.	.	.	4g#/	-lum	-lum
=71-	=71-	=71-	=71-	=71-	=71-	=71-	=71-
2BB/]	# 6	2r	.	.	4rcc	.	.
.	.	.	.	.	8dd\	ſu-	ſu-
.	.	.	.	.	8b\	-ſpi-	-ſpi-
*	*	*custos:a	*	*	*	*	*
!LO:TX:t=P:problem:kreska pseudotaktowa	!	!LO:LB:g=original	!	!	!	!	!
2AA/	#	4r	.	.	4cc#X\	-ra-	-ra-
!	!	!	!	!	!LO:TX:t=P:problem:wykreślony błędny fragment nut	!	!
.	.	8a\	ad	Ad	4cc#\	-mus	-mus,
!	!	!LO:TX:t=P:problem:kreska pseudotaktowa	!	!	!	!	!
.	.	8cc#X\	Te	te	.	.	.
!	!	!	!	!	!LO:LB:g=original	!	!
=72-	=72-	=72-	=72-	=72-	=72-	=72-	=72-
!	!LO:MO:mod=5 #3	!	!	!	!	!	!
2D\	5 3#r	4f#X/	ſo-	ſo-	1r	.	.
.	.	4f#/	-lum	-lum	.	.	.
2D\	# 6	4ra	.	.	.	.	.
.	.	8b\	ſu-	ſu-	.	.	.
!	!	!LO:TX:t=P:problem:kreska pseudotaktowa	!	!	!	!	!
.	.	8f#X/	-ſpi-	-ſpi-	.	.	.
=73-	=73-	=73-	=73-	=73-	=73-	=73-	=73-
2C#X\	8 5# 3#	8g#X/	-ra-	-ra-	4ra	.	.
.	.	8g#/	-mus	-mus,	.	.	.
.	.	8a\	ad	ad	8cc#X\	ad	ad
.	.	8cc#X\	Te	te	8ee\	Te	te
4E\	6 #	8g#X/	ſo-	ſo-	8b\	ſo-	ſo-
.	.	8g#/	-lum	-lum,	8b\	-lum	-lum,
4G#X\	6	8e/	ad	ad	8g#X/	ad	ad
!	!	!LO:TX:t=P:problem:kreska pseudotaktowa	!	!	!	!	!
.	.	8g#X/	Te	te	8b\	Te	te
*custos:A	*	*	*	*	*	*	*
!LO:LB:g=original	!	!	!	!	!	!	!
=74-	=74-	=74-	=74-	=74-	=74-	=74-	=74-
4B\	#	8d#X/	ſo-	ſo-	8f#X/	ſo-	ſo-
.	.	8d#/	-lum	-lum	8f#/	-lum	-lum
4A\	.	8e/	ſu-	ſu-	8a\	ſu-	ſu-
.	.	8e/	-ſpi-	-ſpi-	8g#X/	-ſpi-	-ſpi-
2B\	4:3	4.e/	-ra-	-ra-	2f#X/	-ra-	-ra-
.	.	(8d#X/	-mus	-mus.	.	.	.
=75-	=75-	=75-	=75-	=75-	=75-	=75-	=75-
2E\	#	4e/)	.	.	4g#X/	-mus	-mus.
.	.	4re	.	.	4ee\	o	O
!	!	!LO:TX:t=P:problem:kreska pseudotaktowa	!	!	!	!	!
4.F#X\	6	2r	.	.	4a\	dul-	dul-
.	.	.	.	.	4dd\	-cis	-cis
!LO:TX:t=P:problem:kreska pseudotaktowa	!	!	!	!	!	!	!
8G#X\	.	.	.	.	.	.	.
*	*	*custos:a	*	*	*	*	*
!	!	!LO:LB:g=original	!	!	!	!	!
=76-	=76-	=76-	=76-	=76-	=76-	=76-	=76-
4A\	#	4r	.	.	4cc#X\	Je-	Je-
4AA/	.	4a\	O	O	4cc#\	-ſu	-ſu,
4.BB/	6	4dny/	dul-	dul-	2rb	.	.
!	!	!LO:TX:t=P:problem:kreska pseudotaktowa	!	!	!	!	!
.	.	4gny/	-cis	-cis	.	.	.
8C#X/	.	.	.	.	.	.	.
=77-	=77-	=77-	=77-	=77-	=77-	=77-	=77-
4.D\	#	8f#X/	Je-	Je-	4rcc	.	.
.	.	8f#/	-ſu	-ſu,	.	.	.
.	.	4dd\	o	o	4ff#X\	o	o
8F#X\	6	.	.	.	.	.	.
4G#X\	6 5	4dd\	dul-	dul-	4.ee\	dul-	dul-
!	!	!LO:TX:t=P:problem:kreska pseudotaktowa	!	!	!	!	!
4A\	#	4cc#X\	-cis	-cis,	.	.	.
.	.	.	.	.	8ee\	-cis	-cis,
*	*	*	*	*	*custos:dd	*	*
!	!	!	!	!	!LO:LB:g=original	!	!
=78-	=78-	=78-	=78-	=78-	=78-	=78-	=78-
4F#X\	6 5	4cc#\	dul-	dul-	4.dd\	dul-	dul-
4Gny\	.	4b\	-cis	-cis	.	.	.
.	.	.	.	.	8dd\	-cis	-cis
4E\	6# 5	4b\	Je-	Je-	4.cc#X\	Je-	Je-
!	!	!LO:TX:t=P:problem:kreska pseudotaktowa	!	!	!	!	!
4F#X\	.	4a\	-ſu	-ſu	.	.	.
.	.	.	.	.	8b\	-ſu	-ſu
=79-	=79-	=79-	=79-	=79-	=79-	=79-	=79-
4D\	6 5	4.a\	Chri-	Chri-	2b\	Chri-	Chri-
4E\	4:3	.	.	.	.	.	.
.	.	(<8g#X/	-ste	-ste,	.	.	.
!LO:TX:t=P:problem:kreska pseudotaktowa	!	!	!	!	!	!	!
2AA/	#	4a\)	.	.	4cc#X\	-ste	-ste,
.	.	4r	.	.	4a\	o	o
=80-	=80-	=80-	=80-	=80-	=80-	=80-	=80-
4.BB/	6	2r	.	.	4dny/	dul-	dul-
.	.	.	.	.	4gny/	-cis	-cis
8C#X/	.	.	.	.	.	.	.
2D/	#	4ra	.	.	4f#X/	Je-	Je-
!	!	!LO:TX:t=P:problem:kreska pseudotaktowa	!	!	!	!	!
.	.	4dd\	o	o	4f#/	-ſu	-ſu,
=81-	=81-	=81-	=81-	=81-	=81-	=81-	=81-
4.E\	6	4gny/	dul-	dul-	2r	.	.
.	.	4ccny\	-cis	-cis	.	.	.
8F#X\	.	.	.	.	.	.	.
*custos:G	*	*	*	*	*	*	*
!LO:TX:t=P:problem:mixed beam	!	!	!	!	!	!	!
8G\L	.	8b\	Je-	Je-	4r	.	.
8GG/J	.	8b\	-ſu	-ſu,	.	.	.
4BB/	6	4b\	o	o	4g/	O	o
*	*	*custos:a	*	*	*	*	*
!	!	!LO:PB:g=original	!	!	!	!	!
=82-	=82-	=82-	=82-	=82-	=82-	=82-	=82-
4C#X/	6 5	4.a\	dul-	dul-	4g/	dul-	dul-
4D#X/	.	.	.	.	4f#X/	-cis	-cis,
.	.	8a\	-cis	-cis,	.	.	.
4E\	9	4.g/	dul-	dul-	4f#/	dul-	dul-
!LO:TX:t=P:problem:kreska pseudotaktowa	!	!	!	!	!	!	!
4C#X/	5-	.	.	.	4e/	-cis	-cis
.	.	8g/	-cis	-cis	.	.	.
=83-	=83-	=83-	=83-	=83-	=83-	=83-	=83-
4Dny/	9	4.f#X/	Je-	Je-	4e/	Je-	Je-
4BB/	5	.	.	.	4d/	-ſu	-ſu
.	.	8e/	-ſu	-ſu	.	.	.
4GG/	6 5	2e/	Chri-	Chri-	4.d/	Chri-	Chri-
4AA/	#	.	.	.	.	.	.
.	.	.	.	.	(>8c#X/	-ste	-ste,
=84-	=84-	=84-	=84-	=84-	=84-	=84-	=84-
2D\	#	4f#X/	-ste	-ste,	4d/)	.	.
.	.	4dd\	o	o	4ff#X\	o	o
*	*	*	*	*	*custos:ee	*	*
!	!	!	!	!	!LO:PB:g=original	!	!
4G\	6	4b\	dul-	dul-	4.ee\	dul-	dul-
4A\	.	4cc#X\	-cis	-cis	.	.	.
.	.	.	.	.	8ee\	-cis	-cis
=85-	=85-	=85-	=85-	=85-	=85-	=85-	=85-
4B\	.	4dd\	Je-	Je-	2ee\	Je-	Je-
4F#X\	.	4a\	-ſu	-ſu,	.	.	.
4G\	6	4b\	dul-	dul-	2ee\	-ſu	-ſu
4A\	.	4cc#X\	-cis	-cis	.	.	.
=86-	=86-	=86-	=86-	=86-	=86-	=86-	=86-
4B\	.	4.dd\	Je-	Je-	1ee	Chri-	Chri-
4G\	6 5	.	.	.	.	.	.
.	.	8dd\	-ſu	-ſu	.	.	.
2A\	4:3	4.dd\	Chri-	Chri-	.	.	.
.	.	(8cc#X\	-ste	-ste.	.	.	.
=87-	=87-	=87-	=87-	=87-	=87-	=87-	=87-
*M3/2	*	*M3/2	*	*	*M3/2	*	*
1D	#	2dd\)	.	.	2ff#X\	-ste	-ste.
.	.	2r	.	.	2r	.	.
!	!	!	!	!	!LO:TX:t=P:problem:kreska pseudotaktowa	!	!
2D/	.	2f#X/	ſis	Sis	2a\	ſis	Sis
*	*	*custos:g	*	*	*	*	*
!	!	!LO:LB:g=original	!	!	!	!	!
=88-	=88-	=88-	=88-	=88-	=88-	=88-	=88-
1.GG	.	2.g/	glo-	glo-	2.b\	glo-	glo-
.	.	4f#X/	-ri-	-ri-	4a\	-ri-	-ri-
.	.	2e/	-a	-a	2g/	-a	-a
=89-	=89-	=89-	=89-	=89-	=89-	=89-	=89-
1D	#	2f#X/	me-	me-	2a\	me-	me-
.	.	2f#/	-a	-a,	2a\	-a	-a,
!LO:TX:t=P:problem:kreska pseudotaktowa	!	!	!	!	!	!	!
2BB/	.	2b\	ſis	ſis	2dd\	ſis	ſis
=90-	=90-	=90-	=90-	=90-	=90-	=90-	=90-
1Cny	6	2.a\	glo-	glo-	2.ccny\	glo-	glo-
.	.	4g/	-ri-	-ri-	4b\	-ri-	-ri-
2D/	#	2f#X/	-a	-a	2a\	-a	-a
*custos:G	*	*	*	*	*	*	*
!LO:LB:g=original	!	!	!	!	!	!	!
=91-	=91-	=91-	=91-	=91-	=91-	=91-	=91-
1G	.	2g/	me-	me-	2b\	me-	me-
.	.	2g/	-a	-a,	2b\	-a	-a,
!	!	!LO:TX:t=P:problem:kreska pseudotaktowa	!	!	!	!	!
2GG/	.	2r	.	.	2b\	ſis	ſis
=92-	=92-	=92-	=92-	=92-	=92-	=92-	=92-
2AA/	.	2re	.	.	2cc\	to-	to-
2BB/	.	2re	.	.	2dd\	-ta	-ta,
2C/	.	2e/	sis	sis	2ee\	ſis	ſis
*	*	*	*	*	*custos:dd	*	*
!	!	!	!	!	!LO:LB:g=original	!	!
=93-	=93-	=93-	=93-	=93-	=93-	=93-	=93-
2D\	#	2f#X/	to-	to-	1.dd	to-	to-
2E\	#	2g#X/	-ta	-ta,	.	.	.
2Fny\	.	2a\	sis	sis	.	.	.
=94-	=94-	=94-	=94-	=94-	=94-	=94-	=94-
1E	# 5	1g#X	to-	to-	2ee\	-ta	-ta,
.	.	.	.	.	2b\	to-	to-
2D\	.	2g#/	-ta	-ta	2b\	-ta	-ta
=95-	=95-	=95-	=95-	=95-	=95-	=95-	=95-
2C/	.	2a\	de-	de-	2cc\	de-	de-
!LO:TX:t=P:problem:kreska pseudotaktowa	!	!	!	!	!	!	!
1BB	# 6	1g#X	-le-	-lec-	1dd	-lec-	-lec-
*	*	*custos:a	*	*	*	*	*
!	!	!LO:LB:g=original	!	!	!	!	!
=96-	=96-	=96-	=96-	=96-	=96-	=96-	=96-
1.AA	-	2.a\	-cta-	-ta-	2.cc\	-ta-	-ta-
.	.	4a\	-ti-	-ti-	4cc\	-ti-	-ti-
.	.	2a\	-o	-o	2cc\	-o	-o
=97-	=97-	=97-	=97-	=97-	=97-	=97-	=97-
1.AA	6#:5	2f#X/	a-	a-	2a\	a-	a-
.	.	2f#/	-ni-	-ni-	2a\	-ni-	-ni-
.	.	2e/	-ma	-mae	2g/	-ma	-mae
=98-	=98-	=98-	=98-	=98-	=98-	=98-	=98-
!LO:TX:t=P:problem:kreska pseudotaktowa	!	!	!	!	!	!	!
1.BB	4:3	1e	me-	me-	1.f#X	me-	me-
.	.	(2d#X/	-a	-ae,	.	.	.
=99-	=99-	=99-	=99-	=99-	=99-	=99-	=99-
1.E	#	1e)	.	.	1g#X	-a	-ae,
.	.	2g#X/	sis	sis	2b\	ſis	ſis
=100-	=100-	=100-	=100-	=100-	=100-	=100-	=100-
1.AA	-	2a\	to-	to-	2cc\	to-	to-
.	.	2b\	-ta	-ta,	2dd\	-ta	-ta,
.	.	2ccny\	sis	sis	2ee\	ſis	ſis
=101-	=101-	=101-	=101-	=101-	=101-	=101-	=101-
1E	#	1b	to-	to-	1g#X	to-	to-
!LO:TX:t=P:problem:kreska pseudotaktowa	!	!	!	!	!	!	!
2D/	.	2b\	-ta	-ta	2g#/	-ta	-ta,
=102-	=102-	=102-	=102-	=102-	=102-	=102-	=102-
1C	6	2r	.	.	1.r	.	.
.	.	2a\	to-	to-	.	.	.
2BB/	6	2gny/	-ta	-ta,	.	.	.
=103-	=103-	=103-	=103-	=103-	=103-	=103-	=103-
2AA/	6	2fny/	to-	to-	2rdd	.	.
2A\	6	1c	-ta	-ta	2ffny\	to-	to-
2G\	6	.	.	.	2ee\	-ta	-ta,
*	*	*custos:a	*	*	*custos:dd	*	*
!	!	!LO:LB:g=original	!	!	!LO:LB:g=original	!	!
=104-	=104-	=104-	=104-	=104-	=104-	=104-	=104-
1F	6	2r	.	.	1dd	to-	to-
.	.	2a\	de-	de-	.	.	.
2E\	# 6	2g/	-lec-	-lec-	2cc#X\	-ta	-ta
*custos:D	*	*	*	*	*	*	*
!LO:LB:g=original	!	!	!	!	!	!	!
=105-	=105-	=105-	=105-	=105-	=105-	=105-	=105-
1.D	.	2.f/	-ta-	-ta-	2rb	.	.
.	.	.	.	.	2dd\	de-	de-
.	.	4f/	-ti-	-ti-	.	.	.
.	.	2f/	-o	-o	2ccny\	-lec-	-lec-
=106-	=106-	=106-	=106-	=106-	=106-	=106-	=106-
1D	- 6	2.f/	a-	a-	1b-X	-ta-	-ta-
.	.	4f/	-ni-	-ni-	.	.	.
!LO:TX:t=P:problem:kreska pseudotaktowa	!	!	!	!	!	!	!
2E\	.	2g/	-ma	-mae	2b-\	-ti-	-ti-
=107-	=107-	=107-	=107-	=107-	=107-	=107-	=107-
1.F	9:8	1g	me-	me-	1.a	-o	-o
.	.	2f/	-a	-ae,	.	.	.
=108-	=108-	=108-	=108-	=108-	=108-	=108-	=108-
1.D	-	2ff\	a-	a-	2a\	a-	a-
.	.	2dd\	-ni-	-ni-	2a\	-ni-	-ni-
.	.	2cc\	-ma	-mae	2a\	-ma	-mae
=109-	=109-	=109-	=109-	=109-	=109-	=109-	=109-
2E\	4:3	(2cc\	me-	me-	(1a	me-	me-
!LO:TX:t=P:problem:kreska pseudotaktowa	!	!	!	!	!	!	!
1EE	.	1b)	.	.	.	.	.
.	.	.	.	.	2g#X/)	-a	-ae,
=110-	=110-	=110-	=110-	=110-	=110-	=110-	=110-
[<1.AA	-	1cc	-a	-ae,	1a	.	.
!	!	!	!	!	!LO:TX:t=P:problem:kreska pseudotaktowa	!	!
.	.	2cc\	ſis	ſis	2ee\	ſis	ſis
=111-	=111-	=111-	=111-	=111-	=111-	=111-	=111-
1.AA]	.	2.a\	glo-	glo-	2.cc\	glo-	glo-
.	.	4g#X/	-ri-	-ri-	4bny\	-ri-	-ri-
.	.	2f#X/	-a	-a	2a\	-a	-a
=112-	=112-	=112-	=112-	=112-	=112-	=112-	=112-
!LO:TX:t=P:problem:kreska pseudotaktowa	!	!	!	!	!	!	!
1.E	#	2g#X/	me-	me-	2b\	me-	me-
.	.	2g#/	-a	-a,	2b\	-a	-a,
.	.	2g#/	ſis	ſis	2b\	sis	sis
*	*	*custos:a	*	*	*custos:cc	*	*
!	!	!LO:LB:g=original	!	!	!LO:LB:g=original	!	!
=113-	=113-	=113-	=113-	=113-	=113-	=113-	=113-
1AA	-	2.a\	glo-	glo-	2.cc\	glo-	glo-
.	.	4a\	-ri-	-ri-	4cc\	-ri-	-ri-
2GG/	.	2b\	-a	-a	2dd\	-a	-a
=114-	=114-	=114-	=114-	=114-	=114-	=114-	=114-
1C	.	2cc\	me-	me-	2ee\	me-	me-
.	.	2cc\	-a	-a,	2ee\	-a	-a,
2C/	.	2e/	sis	sis	2rdd	.	.
=115-	=115-	=115-	=115-	=115-	=115-	=115-	=115-
2D\	#	2f#X/	to-	to-	1.r	.	.
2E\	#	2g#X/	-ta	-ta,	.	.	.
2F\	.	2a\	sis	sis	.	.	.
=116-	=116-	=116-	=116-	=116-	=116-	=116-	=116-
1E	#	2g#X/	to-	to-	2rcc	.	.
.	.	2g#/	-ta	-ta,	2rcc	.	.
!	!	!	!	!	!LO:TX:t=P:problem:kreska pseudotaktowa	!	!
2E\	.	2g#/	sis	sis	2b\	ſis	ſis
=117-	=117-	=117-	=117-	=117-	=117-	=117-	=117-
1.AA	-	2a\	to-	to-	2cc\	to-	to-
.	.	2b\	-ta	-ta,	2dd\	-ta	-ta,
.	.	2cc\	sis	sis	2ee\	ſis	ſis
=118-	=118-	=118-	=118-	=118-	=118-	=118-	=118-
!LO:TX:t=P:problem:kreska pseudotaktowa	!	!	!	!	!	!	!
1.E	#	1b	to-	to-	1g#X	to-	to-
.	.	2b\	-ta	-ta	2g#/	-ta	-ta
=119-	=119-	=119-	=119-	=119-	=119-	=119-	=119-
1AA	-	2rb	.	.	2r	.	.
.	.	2cc\	de-	de-	2a\	de-	de-
2D\	#	2a\	-lec-	-lec-	2f#X/	-lec-	-lec-
=120-	=120-	=120-	=120-	=120-	=120-	=120-	=120-
1.GG	.	2.b\	-ta-	-ta-	2.gny/	-ta-	-ta-
.	.	4b\	-ti-	-ti-	4g/	-ti-	-ti-
.	.	2b\	-o	-o	2g/	-o	-o
*custos:C	*	*custos:a	*	*	*	*	*
!LO:PB:g=original	!	!LO:LB:g=original	!	!	!	!	!
=121-	=121-	=121-	=121-	=121-	=121-	=121-	=121-
2C/	.	2a\	a-	a-	2g/	a-	a-
2D/	.	2a\	-ni-	-ni-	2g/	-ni-	-ni-
!LO:TX:t=P:problem:kreska pseudotaktowa	!	!	!	!	!	!	!
2E\	# 6	2a\	-ma	-mae	2g/	-ma	-mae
*	*	*	*	*	*custos:g	*	*
!	!	!	!	!	!LO:LB:g=original	!	!
=122-	=122-	=122-	=122-	=122-	=122-	=122-	=122-
2D\	4:3	1.a	me-	me-	1g	me-	me-
1DD	.	.	.	.	.	.	.
.	.	.	.	.	(2f#X/	-a	-ae
=123-	=123-	=123-	=123-	=123-	=123-	=123-	=123-
1GG	.	1b	-a	-ae,	1g)	.	.
2GG/	.	2rb	.	.	2b\	ſis	ſis
=124-	=124-	=124-	=124-	=124-	=124-	=124-	=124-
2AA/	.	2rf	.	.	2cc\	to-	to-
2BB/	.	2rf	.	.	2dd\	-ta	-ta,
!LO:TX:t=P:problem:kreska pseudotaktowa	!	!	!	!	!	!	!
2C/	.	2e/	sis	sis	2ee\	sis	sis
=125-	=125-	=125-	=125-	=125-	=125-	=125-	=125-
2D\	#	2f#X/	to-	to-	1.dd	to-	to-
2E\	#	2g#X/	-ta	-ta,	.	.	.
2F\	.	2a\	sis	sis	.	.	.
=126-	=126-	=126-	=126-	=126-	=126-	=126-	=126-
1E	#	1g#X	to-	to-	2ee\	-ta	-ta,
.	.	.	.	.	2b\	to-	to-
2D/	.	2g#/	-ta	-ta	2b\	-ta	-ta
=127-	=127-	=127-	=127-	=127-	=127-	=127-	=127-
2C/	.	2a\	de-	de-	2cc\	de-	de-
!LO:TX:t=P:problem:kreska pseudotaktowa	!	!	!	!	!	!	!
1BB	# 6	1g#X	-lec-	-lec-	1dd	-lec-	-lec-
=128-	=128-	=128-	=128-	=128-	=128-	=128-	=128-
1.AA	-	2.a\	-ta-	-ta-	2.cc\	-ta-	-ta-
.	.	4a\	-ti-	-ti-	4cc\	-ti-	-ti-
.	.	2a\	-o	-o	2cc\	-o	-o
=129-	=129-	=129-	=129-	=129-	=129-	=129-	=129-
1.D	#	2f#X/	a-	a-	2dd\	a-	a-
.	.	2g#X/	-ni-	-ni-	2dd\	-ni-	-ni-
.	.	2a\	-ma	-mae	2cc\	-ma	-mae
*	*	*custos:a	*	*	*	*	*
!	!	!LO:LB:g=original	!	!	!	!	!
=130-	=130-	=130-	=130-	=130-	=130-	=130-	=130-
2E\	4:3	(1a	me-	me-	(2cc\	me-	me-
!LO:TX:t=P:problem:kreska pseudotaktowa	!	!	!	!	!	!	!
1EE	.	.	.	.	1b)	.	.
.	.	2g#X/)	-a	-ae,	.	.	.
*	*	*	*	*	*custos:cc	*	*
!	!	!	!	!	!LO:LB:g=original	!	!
=131-	=131-	=131-	=131-	=131-	=131-	=131-	=131-
*	*	*col	*	*	*col	*	*
[<1.AA	-	1a	a-	a-	1cc	-a	-ae,
.	.	1a\	-ni-	-ni-	1cc\	a-	a-
*	*	*Xcol	*	*	*Xcol	*	*
=132-	=132-	=132-	=132-	=132-	=132-	=132-	=132-
1.AA]	.	.	.	.	.	.	.
.	.	2f#X/	-ma	-mae	2a\	-ni-	-ni-
.	.	2e/	.	.	2g/	-ma	-mae
*custos:BB	*	*	*	*	*	*	*
!LO:LB:g=original	!	!	!	!	!	!	!
=133-	=133-	=133-	=133-	=133-	=133-	=133-	=133-
1.BB	4:3	1e	me-	me-	1.f#X	me-	me-
.	.	(2d#X/	-a	-ae.	.	.	.
=134-	=134-	=134-	=134-	=134-	=134-	=134-	=134-
*M4/4	*	*M4/4	*	*	*M4/4	*	*
*met(C)	*	*met(C)	*	*	*met(C)	*	*
[<1E	-	2e/)	.	.	2g/	-a	-ae.
.	.	2b\	O	O	2r	.	.
=135-	=135-	=135-	=135-	=135-	=135-	=135-	=135-
1E_<	.	2gny/	dul-	dul-	1r	.	.
.	.	2e/	-cis	-cis	.	.	.
=136-	=136-	=136-	=136-	=136-	=136-	=136-	=136-
1E]	.	1g	Je-	Je-	2rcc	.	.
.	.	.	.	.	2ee\	O	O
=137-	=137-	=137-	=137-	=137-	=137-	=137-	=137-
!LO:TX:t=P:problem:kreska pseudotaktowa	!	!	!	!	!	!	!
1B	5#:6	2f#X/	-ſu	-ſu,	2dd\	dul-	dul-
.	.	1g\	Je-	Je-	2b\	-cis	-cis
=138-	=138-	=138-	=138-	=138-	=138-	=138-	=138-
2A\	3 7	.	.	.	1cc	Je-	Je-
2D\	7 3#	(2f#X/	-ſu	-ſu,	.	.	.
=139-	=139-	=139-	=139-	=139-	=139-	=139-	=139-
1G	.	2g\)	.	.	2b\	-ſu	-ſu,
!	!	!	!	!	!LO:TX:t=P:problem:kreska pseudotaktowa	!	!
.	.	4.g\	ad	ad	2rcc	.	.
.	.	8b\	Te	te	.	.	.
=140-	=140-	=140-	=140-	=140-	=140-	=140-	=140-
!LO:TX:t=P:problem:kreska pseudotaktowa	!	!	!	!	!	!	!
1G#X	6	4.e/	ve-	ve-	2rcc	.	.
.	.	8e/	-ni-	-ni-	.	.	.
.	.	2e/	-o	-o,	4.b\	ad	ad
.	.	.	.	.	8ee\	te	te
*	*	*custos:e	*	*	*	*	*
!	!	!LO:LB:g=original	!	!	!	!	!
=141-	=141-	=141-	=141-	=141-	=141-	=141-	=141-
1C#X	6	2rf	.	.	4.a\	ve-	ve-
.	.	.	.	.	8a\	-ni-	-ni-
.	.	4.e/	ad	ad	2a\	-o	-o,
.	.	8a\	Te	te	.	.	.
=142-	=142-	=142-	=142-	=142-	=142-	=142-	=142-
[<1D	#	4.f#X/	ve-	ve-	2r	.	.
.	.	8f#/	-ni-	-ni-	.	.	.
*	*	*	*	*	*	*ij	*
.	.	2f#/	-o	-o,	4.a\	ad	ad
.	.	.	.	.	8dd\	te	te
*	*	*	*	*	*custos:g#	*	*
!	!	!	!	!	!LO:LB:g=original	!	!
=143-	=143-	=143-	=143-	=143-	=143-	=143-	=143-
2D/]	4 2	2rb	.	.	4.g#X/	ve-	ve-
.	.	.	.	.	8g#/	-ni-	-ni-
!LO:TX:t=P:problem:kreska pseudotaktowa	!	!	!	!	!	!	!
2C#X\	6	4.cc#X\	ad	ad	4a\	-o	-o,
*	*	*	*	*	*	*Xij	*
.	.	.	.	.	2a\	ve-	ve-
.	.	8ee\	Te	te	.	.	.
=144-	=144-	=144-	=144-	=144-	=144-	=144-	=144-
1E	4:3	2.b\	ve-	ve-	.	.	.
.	.	.	.	.	(8g#X\L	.	.
.	.	.	.	.	8f#X\J)	.	.
.	.	.	.	.	4.g#/	.	.
.	.	4b\	-ni-	-ni-	.	.	.
.	.	.	.	.	8g#/	-ni-	-ni-
=145-	=145-	=145-	=145-	=145-	=145-	=145-	=145-
1AA	#	2cc#X\	-o	-o.	2a\	-o	-o.
.	.	2rb	.	.	4r	.	.
.	.	.	.	.	4a\	O	O
=146-	=146-	=146-	=146-	=146-	=146-	=146-	=146-
2BB/	6	2rdd	.	.	2gny/	dul-	dul-
2C#X/	6	4rdd	.	.	2e/	-cis	-cis,
.	.	4ee\	O	O	.	.	.
=147-	=147-	=147-	=147-	=147-	=147-	=147-	=147-
2D\	#	2dd\	dul-	dul-	2f#X/	dul-	dul-
2E\	#	2b\	-cis	-cis	2g#X/	-cis	-cis
*custos:AA	*	*	*	*	*	*	*
!LO:LB:g=original	!	!	!	!	!	!	!
=148-	=148-	=148-	=148-	=148-	=148-	=148-	=148-
2AA/	-	1ccny	Je-	Je-	2a\	Je-	Je-
!	!LO:MO:mod=7 #3	!	!	!	!	!	!
2D\	7 3#r	.	.	.	4f#X/	-ſu	-ſu,
.	.	.	.	.	4f#/	ad	ad
=149-	=149-	=149-	=149-	=149-	=149-	=149-	=149-
!LO:TX:t=P:problem:kreska pseudotaktowa	!	!	!	!	!	!	!
1GG	.	2b\	-ſu	-ſu,	2gny\	te	te,
!	!	!LO:TX:t=P:problem:kreska pseudotaktowa	!	!	!	!	!
.	.	2rb	.	.	4.g\	ad	ad
.	.	.	.	.	8b\	te	te
*	*	*	*	*	*custos:e	*	*
!	!	!	!	!	!LO:LB:g=original	!	!
=150-	=150-	=150-	=150-	=150-	=150-	=150-	=150-
2Cny/	.	2rb	.	.	[>1e	ve-	ve-
[<2AA/	-	4.cc\	ad	ad	.	.	.
.	.	8ee\	Te	te	.	.	.
*	*	*custos:f#	*	*	*	*	*
!	!	!LO:LB:g=original	!	!	!	!	!
=151-	=151-	=151-	=151-	=151-	=151-	=151-	=151-
2AA/]	6 5	2.f#X/	ve-	ve-	2e]	.	.
2BB/	#	.	.	.	2d#X/	-ni-	-ni-
.	.	4f#/	-ni-	-ni-	.	.	.
=152-	=152-	=152-	=152-	=152-	=152-	=152-	=152-
!LO:TX:t=P:problem:kreska pseudotaktowa	!	!	!	!	!	!	!
1EE	-	2g/	-o	-o,	2e/	-o	-o,
.	.	4.g/	ad	ad	2rf	.	.
.	.	8b\	Te	te	.	.	.
=153-	=153-	=153-	=153-	=153-	=153-	=153-	=153-
2C/	.	[>1e	ve-	ve-	2r	.	.
[<2AA/	-	.	.	.	4.cc\	ad	ad
.	.	.	.	.	8ee\	Te	te
=154-	=154-	=154-	=154-	=154-	=154-	=154-	=154-
2AA/]	6 5	2e]	.	.	2.f#X/	ve-	ve-
2BB/	4:3	2d#X/	-ni-	-ni-	.	.	.
.	.	.	.	.	4f#/	-ni-	-ni-
=155-	=155-	=155-	=155-	=155-	=155-	=155-	=155-
!LO:SIC:s=1El;	!	!LO:SIC:s=1el;	!	!	!LO:SIC:s=1g#l;	!	!
!	!	!LO:TX:b:i:t=il fine:mod=	!	!	!	!	!
1El;;	.	1el;;	-o	-o.	1g#Xl;;	-o	-o.
==	==	==	==	==	==	==	==
*-	*-	*-	*-	*-	*-	*-	*-
!!!system-decoration: [(s1,s2)](s3)
!!!RDF**kern: > = above
!!!RDF**kern: < = below
!!!RDF**kern: l = terminal long
!!!filter-modern: shed -e "s/:t=P:/:T=P:/L"
!!!filter-modern: shed -e "s/-//B"
!!!filter-modern: shed -e "s/^(\d+[\/\\]right)/$1yy/I; s/^(\d+[\/\\]left)/$1yy/I"
!!!filter-modern: humtr -p
!!!filter-modern: shed -e "s/^custos:/Xcustos:/I"
!!!filter-modern: shed -e "s/yy//"
!!!filter-modern: shed -k -e "s/\(y(?!y)/(/"
!!!filter-modern: shed -k -e "s/ny//D"
!!!filter-modern: shed -k -e "s/nX//D"
!!!filter-modern: shed -e "s/#y/#/D"
!!!filter-modern: shed -e "s/#X/#/D"
!!!filter-modern: shed -e "s/-y/-/D"
!!!filter-modern: shed -e "s/-X/-/D"
!!!filter-modern: shed -k -e "s/([\(\)\[\]])[><]/$1/g"
!!!filter-modern: shed -k -e “s/([()[]_])[><]/$1/g”
!!!filter-modern: tie -s
!!!filter-modern: shed -e "s/^(X?)rep$/$1REP/I"
!!!filter-modern: shed -k -e "s/^(X?)tuplet/$1TUPLET/I"
!!!filter-modern: shed -e "s/LO:DY:(a|b|rj)/LO:dy:$1/L"
!!!filter-modern: shed -e "s/LO:HP:(a|b)/LO:hp:$1/L"
!!!filter-modern: shed -k -e "s/r[a-gA-G]+/r/D"
!!!filter-modern: shed -k -e "s/([^a-gA-Gn#-])[<>]/$1/g"
!!!filter-modern: sic -sq
!!!filter-modern: autostem -r
!!!filter-modern: modori -m
!!!filter-modern: humtr -p
!!!ENC: Mateusz Solarz
!!!END: 2022-04-12
!!!EED: Jan Barakat
!!!EEV: 2022-11-03
!!!ENC-modern: Krzysztof Stępień
!!!END-modern: 2022-11-17
